X: 16727
T: Harbour Deep Tune
R: polka
M: 2/4
K: Dmixolydian
|:E>F ED|E/F/G AF/A/|BG GA|BD ED|
DE FG|AB A2|BD E/F/E|1 D2 D2:|2 D2 D/E/F/A/||
|:Bd dc|Bc A2|BG GA|BG AG/A/|
Bd dc|Bc A2|BD E/F/E|1 D2 D/E/F/A/:|2 D2 D2||

